src/assets/icons/help-icon.svg

<svg width="24" height="24" viewBox="0 0 24 24" fill="none" xmlns="http://www.w3.org/2000/svg">
<path d="M12 0C5.3832 0 0 5.3832 0 12C0 18.6168 5.3832 24 12 24C18.6168 24 24 18.6168 24 12C24 5.3832 18.6168 0 12 0ZM12 4.92C12.3085 4.92 12.6101 5.01149 12.8667 5.18291C13.1232 5.35432 13.3232 5.59796 13.4413 5.88301C13.5593 6.16807 13.5902 6.48173 13.53 6.78434C13.4698 7.08695 13.3213 7.36492 13.1031 7.58309C12.8849 7.80126 12.607 7.94983 12.3043 8.01002C12.0017 8.07022 11.6881 8.03932 11.403 7.92125C11.118 7.80318 10.8743 7.60323 10.7029 7.34669C10.5315 7.09015 10.44 6.78854 10.44 6.48C10.44 6.06626 10.6044 5.66947 10.8969 5.37691C11.1895 5.08436 11.5863 4.92 12 4.92ZM15.84 17.98C15.84 18.2561 15.6161 18.48 15.34 18.48H9.14C8.86386 18.48 8.64 18.2561 8.64 17.98V17.06C8.64 16.7839 8.86386 16.56 9.14 16.56H11.28V11.28H9.86C9.58386 11.28 9.36 11.0561 9.36 10.78V9.86C9.36 9.58386 9.58386 9.36 9.86 9.36H12.7C12.9761 9.36 13.2 9.58386 13.2 9.86V16.56H15.34C15.6161 16.56 15.84 16.7839 15.84 17.06V17.98Z" fill="#32324D"/>
</svg>

<svg width="24" height="24" fill="none" xmlns="http://www.w3.org/2000/svg"><path d="M12 0C5.383 0 0 5.383 0 12s5.383 12 12 12 12-5.383 12-12S18.617 0 12 0zm0 4.92a1.56 1.56 0 110 3.12 1.56 1.56 0 010-3.12zm3.84 13.06a.5.5 0 01-.5.5h-6.2a.5.5 0 01-.5-.5v-.92a.5.5 0 01.5-.5h2.14v-5.28H9.86a.5.5 0 01-.5-.5v-.92a.5.5 0 01.5-.5h2.84a.5.5 0 01.5.5v6.7h2.14a.5.5 0 01.5.5v.92z" fill="#32324D"/></svg>
